veiligh_install_type/1002.svg

<?xml version="1.0" encoding="UTF-8" standalone="no"?>
<!-- Created with Inkscape (http://www.inkscape.org/) -->

<svg
   xmlns:dc="http://purl.org/dc/elements/1.1/"
   xmlns:cc="http://creativecommons.org/ns#"
   xmlns:rdf="http://www.w3.org/1999/02/22-rdf-syntax-ns#"
   xmlns:svg="http://www.w3.org/2000/svg"
   xmlns="http://www.w3.org/2000/svg"
   xmlns:sodipodi="http://sodipodi.sourceforge.net/DTD/sodipodi-0.dtd"
   xmlns:inkscape="http://www.inkscape.org/namespaces/inkscape"
   version="1.1"
   width="71"
   height="71"
   id="svg2"
   xml:space="preserve"
   inkscape:version="0.48.4 r9939"
   sodipodi:docname="Tb01.svg"><sodipodi:namedview
     pagecolor="#ffffff"
     bordercolor="#666666"
     borderopacity="1"
     objecttolerance="10"
     gridtolerance="10"
     guidetolerance="10"
     inkscape:pageopacity="0"
     inkscape:pageshadow="2"
     inkscape:window-width="1920"
     inkscape:window-height="1027"
     id="namedview14"
     showgrid="false"
     inkscape:zoom="3.3303932"
     inkscape:cx="36.031781"
     inkscape:cy="35.431252"
     inkscape:window-x="0"
     inkscape:window-y="27"
     inkscape:window-maximized="1"
     inkscape:current-layer="svg2" /><metadata
     id="metadata8"><rdf:RDF><cc:Work
         rdf:about=""><dc:format>image/svg+xml</dc:format><dc:type
           rdf:resource="http://purl.org/dc/dcmitype/StillImage" /><dc:title /></cc:Work></rdf:RDF></metadata><defs
     id="defs6"><clipPath
       id="clipPath18"><path
         d="M 0,566.93 0,0 l 566.934,0 0,566.93 -566.934,0 z"
         id="path20"
         inkscape:connector-curvature="0" /></clipPath></defs><g
     transform="matrix(1.2523504,0,0,-1.2523592,0,71)"
     id="g10"><rect
       width="39.63496"
       height="67.259323"
       rx="0.33637127"
       x="16.514566"
       y="1.5013242"
       transform="matrix(0.8,0,0,-0.8,0,56.69)"
       id="rect3001"
       style="color:#000000;fill:#ffffff;fill-opacity:1;fill-rule:nonzero;stroke:none;stroke-width:1;marker:none;visibility:visible;display:inline;overflow:visible;enable-background:accumulate" /><g
       transform="scale(0.1,0.1)"
       id="g12"><g
         id="g14"><g
           clip-path="url(#clipPath18)"
           id="g16"><path
             d="m 0,0 566.934,0 0,566.93 L 0,566.93 0,0 z"
             id="path22"
             style="fill:#ed1c24;fill-opacity:1;fill-rule:nonzero;stroke:none"
             inkscape:connector-curvature="0" /><path
             d="m 315.371,433.316 c -1.816,0 -3.613,-0.101 -5.391,-0.296 l 0,36.035 25.801,0 24.629,7.48 0,26.567 -24.629,7.48 -25.801,0 0,18.297 -55.582,0 0,-17.949 c 0,0 -12.804,0 -17.378,0 -4.579,0 -13.977,-7.383 -13.977,-7.383 0,0 -39.422,-45.184 -41.422,-47.168 -7.598,-7.59 -7.734,-51.383 -7.734,-51.383 l 16.109,0 1.504,22.598 42.148,43.656 20.75,0 0,-36.43 -0.035,0 c -27.207,0 -49.269,-22.047 -49.269,-49.277 0,-0.059 0.008,-0.137 0.008,-0.195 l 0,-340.2308 159.507,0 0,337.3788 c 0,0.512 0.039,1.031 0.039,1.563 0,27.211 -22.089,49.257 -49.277,49.257"
             id="path24"
             style="fill:#ffffff;fill-opacity:1;fill-rule:nonzero;stroke:none"
             inkscape:connector-curvature="0" /></g></g></g></g></svg>

<?xml version="1.0" encoding="UTF-8" standalone="no"?>
<!-- Created with Inkscape (http://www.inkscape.org/) -->

<svg
   xmlns:dc="http://purl.org/dc/elements/1.1/"
   xmlns:cc="http://creativecommons.org/ns#"
   xmlns:rdf="http://www.w3.org/1999/02/22-rdf-syntax-ns#"
   xmlns:svg="http://www.w3.org/2000/svg"
   xmlns="http://www.w3.org/2000/svg"
   xmlns:sodipodi="http://sodipodi.sourceforge.net/DTD/sodipodi-0.dtd"
   xmlns:inkscape="http://www.inkscape.org/namespaces/inkscape"
   version="1.1"
   width="125"
   height="125"
   id="svg2"
   xml:space="preserve"
   inkscape:version="0.92.5 (2060ec1f9f, 2020-04-08)"
   sodipodi:docname="1002.svg"><sodipodi:namedview
     pagecolor="#ffffff"
     bordercolor="#666666"
     borderopacity="1"
     objecttolerance="10"
     gridtolerance="10"
     guidetolerance="10"
     inkscape:pageopacity="0"
     inkscape:pageshadow="2"
     inkscape:window-width="1920"
     inkscape:window-height="1017"
     id="namedview14"
     showgrid="false"
     inkscape:zoom="3.3303932"
     inkscape:cx="-14.562845"
     inkscape:cy="35.431252"
     inkscape:window-x="-8"
     inkscape:window-y="-8"
     inkscape:window-maximized="1"
     inkscape:current-layer="svg2" /><metadata
     id="metadata8"><rdf:RDF><cc:Work
         rdf:about=""><dc:format>image/svg+xml</dc:format><dc:type
           rdf:resource="http://purl.org/dc/dcmitype/StillImage" /><dc:title></dc:title></cc:Work></rdf:RDF></metadata><defs
     id="defs6"><clipPath
       id="clipPath18"><path
         d="M 0,566.93 V 0 h 566.934 v 566.93 z"
         id="path20"
         inkscape:connector-curvature="0" /></clipPath></defs><g
     transform="matrix(1.1465179,0,0,-1.146526,30.000001,94.999999)"
     id="g10"><rect
       width="39.63496"
       height="67.259323"
       rx="0.33637127"
       x="16.514566"
       y="1.5013242"
       transform="matrix(0.8,0,0,-0.8,0,56.69)"
       id="rect3001"
       style="color:#000000;display:inline;overflow:visible;visibility:visible;fill:#ffffff;fill-opacity:1;fill-rule:nonzero;stroke:none;stroke-width:1;marker:none;enable-background:accumulate" /><g
       transform="scale(0.1)"
       id="g12"><g
         id="g14"><g
           clip-path="url(#clipPath18)"
           id="g16"><path
             d="M 0,0 H 566.934 V 566.93 H 0 Z"
             id="path22"
             style="fill:#ed1c24;fill-opacity:1;fill-rule:nonzero;stroke:none"
             inkscape:connector-curvature="0" /><path
             d="m 315.371,433.316 c -1.816,0 -3.613,-0.101 -5.391,-0.296 v 36.035 h 25.801 l 24.629,7.48 v 26.567 l -24.629,7.48 H 309.98 v 18.297 H 254.398 V 510.93 c 0,0 -12.804,0 -17.378,0 -4.579,0 -13.977,-7.383 -13.977,-7.383 0,0 -39.422,-45.184 -41.422,-47.168 -7.598,-7.59 -7.734,-51.383 -7.734,-51.383 h 16.109 l 1.504,22.598 42.148,43.656 h 20.75 v -36.43 h -0.035 c -27.207,0 -49.269,-22.047 -49.269,-49.277 0,-0.059 0.008,-0.137 0.008,-0.195 V 45.1172 H 364.609 V 382.496 c 0,0.512 0.039,1.031 0.039,1.563 0,27.211 -22.089,49.257 -49.277,49.257"
             id="path24"
             style="fill:#ffffff;fill-opacity:1;fill-rule:nonzero;stroke:none"
             inkscape:connector-curvature="0" /></g></g></g></g></svg>
